apps/48/midori.svg

<?xml version="1.0" encoding="UTF-8" standalone="no"?>
<!-- Created with Inkscape (http://www.inkscape.org/) -->

<svg
   xmlns:svg="http://www.w3.org/2000/svg"
   xmlns="http://www.w3.org/2000/svg"
   xmlns:xlink="http://www.w3.org/1999/xlink"
   version="1.1"
   width="48"
   height="48"
   id="svg4067">
  <defs
     id="defs4069">
    <linearGradient
       x1="24.397675"
       y1="3.6018722"
       x2="24.397675"
       y2="26.091318"
       id="linearGradient2423"
       xlink:href="#linearGradient3996"
       gradientUnits="userSpaceOnUse"
       gradientTransform="translate(-0.3976755,0.3981273)" />
    <linearGradient
       id="linearGradient3996">
      <stop
         id="stop3998"
         style="stop-color:#ffffff;stop-opacity:1"
         offset="0" />
      <stop
         id="stop4000"
         style="stop-color:#ffffff;stop-opacity:0"
         offset="1" />
    </linearGradient>
    <linearGradient
       x1="24"
       y1="41.999996"
       x2="18.682182"
       y2="5.9999995"
       id="linearGradient3625"
       xlink:href="#linearGradient2594"
       gradientUnits="userSpaceOnUse" />
    <linearGradient
       id="linearGradient2594">
      <stop
         id="stop2596"
         style="stop-color:#46a9d2;stop-opacity:1"
         offset="0" />
      <stop
         id="stop2600"
         style="stop-color:#123760;stop-opacity:1"
         offset="1" />
    </linearGradient>
    <linearGradient
       x1="29.050154"
       y1="7.0280032"
       x2="29.050154"
       y2="40.320171"
       id="linearGradient2428"
       xlink:href="#linearGradient2480"
       gradientUnits="userSpaceOnUse"
       gradientTransform="matrix(1.0606061,0,0,1.060606,-1.4545467,-1.4545435)" />
    <linearGradient
       id="linearGradient2480">
      <stop
         id="stop2482"
         style="stop-color:#636467;stop-opacity:1"
         offset="0" />
      <stop
         id="stop2484"
         style="stop-color:#fcfcfc;stop-opacity:1"
         offset="1" />
    </linearGradient>
    <radialGradient
       cx="24.011986"
       cy="24.003313"
       r="21"
       fx="24.011986"
       fy="24.003313"
       id="radialGradient3621"
       xlink:href="#linearGradient8647-277-296-475-339-157-820-173"
       gradientUnits="userSpaceOnUse"
       gradientTransform="matrix(0.9532054,0,0,0.9532054,1.1236313,1.1232247)" />
    <linearGradient
       id="linearGradient8647-277-296-475-339-157-820-173">
      <stop
         id="stop6735"
         style="stop-color:#ffffff;stop-opacity:1"
         offset="0" />
      <stop
         id="stop3623"
         style="stop-color:#d7d8da;stop-opacity:1"
         offset="0.90215749" />
      <stop
         id="stop6737"
         style="stop-color:#929396;stop-opacity:1"
         offset="1" />
    </linearGradient>
    <linearGradient
       x1="7.5542169"
       y1="2.9999976"
       x2="7.5542169"
       y2="45.184376"
       id="linearGradient2433"
       xlink:href="#linearGradient3271"
       gradientUnits="userSpaceOnUse" />
    <linearGradient
       id="linearGradient3271">
      <stop
         id="stop3273"
         style="stop-color:#b3b3b3;stop-opacity:1"
         offset="0" />
      <stop
         id="stop3275"
         style="stop-color:#808080;stop-opacity:1"
         offset="1" />
    </linearGradient>
    <linearGradient
       id="linearGradient8838">
      <stop
         id="stop8840"
         style="stop-color:#000000;stop-opacity:1"
         offset="0" />
      <stop
         id="stop8842"
         style="stop-color:#000000;stop-opacity:0"
         offset="1" />
    </linearGradient>
    <radialGradient
       cx="62.625"
       cy="4.625"
       r="10.625"
       fx="62.625"
       fy="4.625"
       id="radialGradient4065"
       xlink:href="#linearGradient8838"
       gradientUnits="userSpaceOnUse"
       gradientTransform="matrix(2.1647059,0,0,0.7529402,-111.56471,36.517647)" />
  </defs>
  <g
     id="layer1">
    <path
       d="m 46.999997,40 c 0,4.418278 -10.297452,8 -23,8 -12.702548,0 -23.0000002,-3.581722 -23.0000002,-8 0,-4.418278 10.2974522,-8 23.0000002,-8 12.702548,0 23,3.581722 23,8 l 0,0 z"
       id="path8836"
       style="opacity:0.3;fill:url(#radialGradient4065);fill-opacity:1;fill-rule:evenodd;stroke:none;stroke-width:0.99999988;marker:none;visibility:visible;display:inline;overflow:visible" />
    <path
       d="M 44.5,23.999273 C 44.5,35.321475 35.32116,44.5 24.000257,44.5 12.678317,44.5 3.5,35.321371 3.5,23.999273 3.5,12.67759 12.678317,3.499998 24.000257,3.499998 35.32116,3.499998 44.5,12.67759 44.5,23.999273 l 0,0 z"
       id="path6495"
       style="fill:url(#radialGradient3621);fill-opacity:1;fill-rule:nonzero;stroke:url(#linearGradient2433);stroke-width:1;stroke-miterlimit:4;stroke-opacity:1;stroke-dasharray:none" />
    <path
       d="m 41.500001,23.999379 c 0,9.665293 -7.835596,17.500619 -17.49978,17.500619 -9.665072,0 -17.5002223,-7.835415 -17.5002223,-17.500619 0,-9.664851 7.8351503,-17.4993792 17.5002223,-17.4993792 9.664184,0 17.49978,7.8345282 17.49978,17.4993792 l 0,0 z"
       id="path3215"
       style="fill:url(#linearGradient3625);fill-opacity:1;fill-rule:nonzero;stroke:url(#linearGradient2428);stroke-width:0.99999994;stroke-miterlimit:4;stroke-dasharray:none" />
    <path
       d="m 43.5,23.999308 c 0,10.769898 -8.731091,19.50069 -19.499755,19.50069 -10.769651,0 -19.5002455,-8.730891 -19.5002455,-19.50069 0,-10.769404 8.7305945,-19.4993084 19.5002455,-19.4993084 C 34.768909,4.4999996 43.5,13.229904 43.5,23.999308 l 0,0 z"
       id="path3222"
       style="opacity:0.8;fill:none;stroke:url(#linearGradient2423);stroke-width:1;stroke-miterlimit:4;stroke-opacity:1;stroke-dasharray:none" />
    <path
       d="M 24.03125,10.65625 22.4375,18.3125 c -0.586298,0.157858 -1.124154,0.402129 -1.625,0.71875 l -3.46875,-1.5625 1.5625,3.46875 c -0.305041,0.489233 -0.53289,1.023863 -0.6875,1.59375 l -7.6875,1.5625 7.6875,1.59375 c 0.15461,0.569887 0.382459,1.104517 0.6875,1.59375 L 17.34375,30.75 20.8125,29.1875 c 0.492438,0.311306 1.018468,0.560684 1.59375,0.71875 l 1.5625,7.65625 1.59375,-7.65625 c 0.586298,-0.157858 1.124154,-0.402129 1.625,-0.71875 l 3.46875,1.5625 -1.5625,-3.46875 c 0.305041,-0.489233 0.53289,-1.023863 0.6875,-1.59375 l 7.6875,-1.53125 -7.6875,-1.59375 c -0.154409,-0.580395 -0.377435,-1.127709 -0.6875,-1.625 l 1.5625,-3.46875 -3.46875,1.5625 C 26.695062,18.719944 26.169032,18.470566 25.59375,18.3125 l -1.5625,-7.65625 z M 23.5,19.125 c 0.168018,-0.01708 0.3275,0 0.5,0 2.76,0 5,2.24 5,5 0,2.76 -2.24,4.96875 -5,4.96875 -2.76,0 -5,-2.24 -5,-5 0,-2.5875 1.979736,-4.712549 4.5,-4.96875 z"
       id="path1118"
       style="fill:#ffffff;fill-opacity:1;fill-rule:evenodd;stroke:none" />
    <g
       transform="translate(-2.4e-7,0.5767243)"
       id="g3999">
      <g
         transform="matrix(0.1061015,0.1049294,-0.0487171,0.04860981,65.548378,19.404422)"
         id="g2337"
         style="stroke:#000000;stroke-width:0.33954075;stroke-miterlimit:4;stroke-opacity:0.45652197">
        <path
           d="m -176.982,231.438 0,235.5222 17.6982,0 -17.6982,-235.5222"
           id="path2335"
           style="fill:#d50000;fill-opacity:1;fill-rule:evenodd;stroke-width:0.33954075;stroke-linecap:butt;stroke-linejoin:miter" />
        <path
           d="m -176.982,231.438 0,235.5222 -17.6982,0 17.6982,-235.5222"
           id="path2336"
           style="fill:#ff8700;fill-opacity:1;fill-rule:evenodd;stroke-width:0.33954075;stroke-linecap:butt;stroke-linejoin:miter" />
      </g>
      <g
         id="g3995">
        <path
           d="m 12.547442,34.981337 11.473958,-11.44869 1.877805,1.85706 -13.351763,9.59163"
           id="path2341"
           style="fill:#cccccc;fill-opacity:1;fill-rule:evenodd;stroke:#000000;stroke-width:0.0340318;stroke-linecap:butt;stroke-linejoin:miter;stroke-miterlimit:4;stroke-opacity:0.45490202" />
        <path
           d="M 12.547442,34.981337 24.0214,23.532647 22.143594,21.675586 12.547442,34.981337"
           id="path2342"
           style="fill:#ffffff;fill-opacity:1;fill-rule:evenodd;stroke:#000000;stroke-width:0.01361274;stroke-linecap:butt;stroke-linejoin:miter;stroke-miterlimit:4;stroke-opacity:0.45490202" />
      </g>
    </g>
    <path
       d="M 23.999999,7.0000003 C 15.446511,7.0000003 8.3572399,13.487878 7,22 10.05677,19.796186 16.505996,18.266519 23.999999,18.266519 31.494004,18.266519 37.943229,19.796186 41,22 39.642624,13.487878 32.552705,7.0000006 23.999999,7.0000003 z"
       id="path3215-6"
       style="opacity:0.2;fill:#ffffff;fill-opacity:1;fill-rule:nonzero;stroke:none" />
  </g>
</svg>

<?xml version="1.0" encoding="UTF-8" standalone="no"?>
<!-- Created with Inkscape (http://www.inkscape.org/) -->
<svg
   xmlns:dc="http://purl.org/dc/elements/1.1/"
   xmlns:cc="http://creativecommons.org/ns#"
   xmlns:rdf="http://www.w3.org/1999/02/22-rdf-syntax-ns#"
   xmlns:svg="http://www.w3.org/2000/svg"
   xmlns="http://www.w3.org/2000/svg"
   xmlns:xlink="http://www.w3.org/1999/xlink"
   xmlns:sodipodi="http://sodipodi.sourceforge.net/DTD/sodipodi-0.dtd"
   xmlns:inkscape="http://www.inkscape.org/namespaces/inkscape"
   version="1.0"
   width="48"
   height="48"
   id="svg3277"
   sodipodi:version="0.32"
   inkscape:version="0.46"
   sodipodi:docname="midori.svg"
   inkscape:output_extension="org.inkscape.output.svg.inkscape">
  <metadata
     id="metadata41">
    <rdf:RDF>
      <cc:Work
         rdf:about="">
        <dc:format>image/svg+xml</dc:format>
        <dc:type
           rdf:resource="http://purl.org/dc/dcmitype/StillImage" />
      </cc:Work>
    </rdf:RDF>
  </metadata>
  <sodipodi:namedview
     inkscape:window-height="679"
     inkscape:window-width="789"
     inkscape:pageshadow="2"
     inkscape:pageopacity="0.0"
     guidetolerance="10.0"
     gridtolerance="10.0"
     objecttolerance="10.0"
     borderopacity="1.0"
     bordercolor="#666666"
     pagecolor="#ffffff"
     id="base"
     showgrid="false"
     inkscape:zoom="9.7083333"
     inkscape:cx="44.652361"
     inkscape:cy="24"
     inkscape:window-x="649"
     inkscape:window-y="134"
     inkscape:current-layer="svg3277" />
  <defs
     id="defs3279">
    <linearGradient
       id="linearGradient8838">
      <stop
         id="stop8840"
         style="stop-color:#000000;stop-opacity:1"
         offset="0" />
      <stop
         id="stop8842"
         style="stop-color:#000000;stop-opacity:0"
         offset="1" />
    </linearGradient>
    <linearGradient
       id="linearGradient3271">
      <stop
         id="stop3273"
         style="stop-color:#999999;stop-opacity:1"
         offset="0" />
      <stop
         id="stop3275"
         style="stop-color:#737373;stop-opacity:1"
         offset="1" />
    </linearGradient>
    <linearGradient
       id="linearGradient8647-277-296-475-339-157-820-173">
      <stop
         id="stop6735"
         style="stop-color:#ffffff;stop-opacity:1"
         offset="0" />
      <stop
         id="stop6737"
         style="stop-color:#b4b4b4;stop-opacity:1"
         offset="1" />
    </linearGradient>
    <linearGradient
       id="linearGradient2480">
      <stop
         id="stop2482"
         style="stop-color:#a9a9a9;stop-opacity:1"
         offset="0" />
      <stop
         id="stop2484"
         style="stop-color:#ffffff;stop-opacity:1"
         offset="1" />
    </linearGradient>
    <linearGradient
       id="linearGradient2594">
      <stop
         id="stop2596"
         style="stop-color:#a6c2d4;stop-opacity:1"
         offset="0" />
      <stop
         id="stop2598"
         style="stop-color:#588eb0;stop-opacity:1"
         offset="0.79691714" />
      <stop
         id="stop2600"
         style="stop-color:#486984;stop-opacity:1"
         offset="1" />
    </linearGradient>
    <linearGradient
       id="linearGradient3996">
      <stop
         id="stop3998"
         style="stop-color:#ffffff;stop-opacity:1"
         offset="0" />
      <stop
         id="stop4000"
         style="stop-color:#ffffff;stop-opacity:0"
         offset="1" />
    </linearGradient>
    <linearGradient
       inkscape:collect="always"
       xlink:href="#linearGradient3996"
       id="linearGradient2423"
       gradientUnits="userSpaceOnUse"
       gradientTransform="translate(-0.3976755,0.398127)"
       x1="24.397675"
       y1="3.6018722"
       x2="24.397675"
       y2="43.633137" />
    <radialGradient
       inkscape:collect="always"
       xlink:href="#linearGradient2594"
       id="radialGradient2426"
       gradientUnits="userSpaceOnUse"
       gradientTransform="matrix(1.7565117,0,0,1.6691291,-90.452679,35.960011)"
       cx="64.865868"
       cy="-7.4739804"
       fx="64.865868"
       fy="-7.4739804"
       r="9.7552834" />
    <linearGradient
       inkscape:collect="always"
       xlink:href="#linearGradient2480"
       id="linearGradient2428"
       gradientUnits="userSpaceOnUse"
       gradientTransform="matrix(1.0606061,0,0,1.060606,-1.4545467,-1.4545438)"
       x1="29.050154"
       y1="7.0280032"
       x2="29.050154"
       y2="40.320171" />
    <radialGradient
       inkscape:collect="always"
       xlink:href="#linearGradient8647-277-296-475-339-157-820-173"
       id="radialGradient2431"
       gradientUnits="userSpaceOnUse"
       gradientTransform="matrix(0,4.3079215,-2.4082351,0,-6.1674158,-264.95427)"
       cx="62.200359"
       cy="-12.526773"
       fx="62.200359"
       fy="-12.526773"
       r="9.7552834" />
    <linearGradient
       inkscape:collect="always"
       xlink:href="#linearGradient3271"
       id="linearGradient2433"
       gradientUnits="userSpaceOnUse"
       x1="7.5542169"
       y1="2.9999976"
       x2="7.5542169"
       y2="45.184376" />
    <radialGradient
       inkscape:collect="always"
       xlink:href="#linearGradient8838"
       id="radialGradient2436"
       gradientUnits="userSpaceOnUse"
       gradientTransform="matrix(2.1647059,0,0,0.7529402,-111.56471,36.517647)"
       cx="62.625"
       cy="4.625"
       fx="62.625"
       fy="4.625"
       r="10.625" />
  </defs>
  <path
     style="opacity:0.3;fill:url(#radialGradient2436);fill-opacity:1;fill-rule:evenodd;stroke:none;stroke-width:0.99999987999999995;stroke-linecap:butt;stroke-linejoin:round;marker:none;marker-start:none;marker-mid:none;marker-end:none;stroke-miterlimit:4;stroke-dasharray:none;stroke-dashoffset:0;stroke-opacity:1;visibility:visible;display:inline;overflow:visible"
     id="path8836"
     d="M 46.999997,40 C 46.999997,44.418278 36.702545,48 23.999997,48 C 11.297449,48 0.9999968,44.418278 0.9999968,40 C 0.9999968,35.581722 11.297449,32 23.999997,32 C 36.702545,32 46.999997,35.581722 46.999997,40 L 46.999997,40 z" />
  <path
     style="fill:url(#radialGradient2431);fill-opacity:1;fill-rule:nonzero;stroke:url(#linearGradient2433);stroke-width:1;stroke-miterlimit:4;stroke-dasharray:none;stroke-opacity:1"
     id="path6495"
     d="M 44.5,23.999273 C 44.5,35.321475 35.32116,44.5 24.000257,44.5 C 12.678317,44.5 3.5,35.321371 3.5,23.999273 C 3.5,12.67759 12.678317,3.4999977 24.000257,3.4999977 C 35.32116,3.4999977 44.5,12.67759 44.5,23.999273 L 44.5,23.999273 z" />
  <path
     style="fill:url(#radialGradient2426);fill-opacity:1;fill-rule:nonzero;stroke:url(#linearGradient2428);stroke-width:0.99999994;stroke-miterlimit:4;stroke-dasharray:none"
     id="path3215"
     d="M 41.500001,23.999379 C 41.500001,33.664672 33.664405,41.499998 24.000221,41.499998 C 14.335149,41.499998 6.4999987,33.664583 6.4999987,23.999379 C 6.4999987,14.334528 14.335149,6.4999995 24.000221,6.4999995 C 33.664405,6.4999995 41.500001,14.334528 41.500001,23.999379 L 41.500001,23.999379 z" />
  <path
     style="opacity:0.6;fill:none;fill-opacity:1;fill-rule:nonzero;stroke:url(#linearGradient2423);stroke-width:1;stroke-miterlimit:4;stroke-dasharray:none;stroke-opacity:1"
     id="path3222"
     d="M 43.5,23.999308 C 43.5,34.769206 34.768909,43.499998 24.000245,43.499998 C 13.230594,43.499998 4.4999995,34.769107 4.4999995,23.999308 C 4.4999995,13.229904 13.230594,4.4999993 24.000245,4.4999993 C 34.768909,4.4999993 43.5,13.229904 43.5,23.999308 L 43.5,23.999308 z" />
  <path
     style="opacity:0.9;fill:#ffffff;fill-opacity:1;fill-rule:evenodd;stroke:#ffffff;stroke-width:0.17204241;stroke-linecap:butt;stroke-linejoin:miter;stroke-miterlimit:4;stroke-opacity:0.46087"
     id="path1118"
     d="M 24.03125,10.65625 L 22.4375,18.3125 C 21.851202,18.470358 21.313346,18.714629 20.8125,19.03125 L 17.34375,17.46875 L 18.90625,20.9375 C 18.601209,21.426733 18.37336,21.961363 18.21875,22.53125 L 10.53125,24.09375 L 18.21875,25.6875 C 18.37336,26.257387 18.601209,26.792017 18.90625,27.28125 L 17.34375,30.75 L 20.8125,29.1875 C 21.304938,29.498806 21.830968,29.748184 22.40625,29.90625 L 23.96875,37.5625 L 25.5625,29.90625 C 26.148798,29.748392 26.686654,29.504121 27.1875,29.1875 L 30.65625,30.75 L 29.09375,27.28125 C 29.398791,26.792017 29.62664,26.257387 29.78125,25.6875 L 37.46875,24.15625 L 29.78125,22.5625 C 29.626841,21.982105 29.403815,21.434791 29.09375,20.9375 L 30.65625,17.46875 L 27.1875,19.03125 C 26.695062,18.719944 26.169032,18.470566 25.59375,18.3125 L 24.03125,10.65625 z M 23.5,19.125 C 23.668018,19.10792 23.8275,19.125 24,19.125 C 26.76,19.125 29,21.365 29,24.125 C 29,26.885 26.76,29.09375 24,29.09375 C 21.24,29.09375 19,26.85375 19,24.09375 C 19,21.50625 20.979736,19.381201 23.5,19.125 z" />
  <g
     style="stroke:#000000;stroke-width:0.33954075;stroke-miterlimit:4;stroke-opacity:0.45652197"
     id="g2337"
     transform="matrix(0.1061015,0.1049294,-4.8717095e-2,4.8609811e-2,65.548378,19.404422)">
    <path
       style="fill:#d50000;fill-opacity:1;fill-rule:evenodd;stroke-width:0.33954075;stroke-linecap:butt;stroke-linejoin:miter"
       id="path2335"
       d="M -176.982,231.438 L -176.982,466.9602 L -159.2838,466.9602 L -176.982,231.438" />
    <path
       style="fill:#ff8700;fill-opacity:1;fill-rule:evenodd;stroke-width:0.33954075;stroke-linecap:butt;stroke-linejoin:miter"
       id="path2336"
       d="M -176.982,231.438 L -176.982,466.9602 L -194.6802,466.9602 L -176.982,231.438" />
  </g>
  <path
     style="fill:#cccccc;fill-opacity:1;fill-rule:evenodd;stroke:#000000;stroke-width:0.0340318;stroke-linecap:butt;stroke-linejoin:miter;stroke-miterlimit:4;stroke-opacity:0.45490202"
     id="path2341"
     d="M 12.547442,34.981337 L 24.0214,23.532647 L 25.899205,25.389707 L 12.547442,34.981337" />
  <path
     style="fill:#ffffff;fill-opacity:1;fill-rule:evenodd;stroke:#000000;stroke-width:0.01361274;stroke-linecap:butt;stroke-linejoin:miter;stroke-miterlimit:4;stroke-opacity:0.45490202"
     id="path2342"
     d="M 12.547442,34.981337 L 24.0214,23.532647 L 22.143594,21.675586 L 12.547442,34.981337" />
</svg>
